archdroid-icon-theme/Archdroid-Amber/emblems/scalable/emblem-speech-symbolic.svg

<svg fill="#bdbdbd" viewBox="0 0 48 48" xmlns="http://www.w3.org/2000/svg"><path d="m40 4h-32c-2.21 0-3.98 1.79-3.98 4l-.02 36 8-8h28c2.21 0 4-1.79 4-4v-24c0-2.21-1.79-4-4-4zm-24 24h-4v-4h4zm0-6h-4v-4h4zm0-6h-4v-4h4zm14 12h-10v-4h10zm6-6h-16v-4h16zm0-6h-16v-4h16z" fill="#bdbdbd"/></svg>

<svg fill="#bdbdbd" viewBox="0 0 48 48" xmlns="http://www.w3.org/2000/svg"><path d="M40 4H8C5.79 4 4.02 5.79 4.02 8L4 44l8-8h28c2.21 0 4-1.79 4-4V8c0-2.21-1.79-4-4-4zM16 28h-4v-4h4v4zm0-6h-4v-4h4v4zm0-6h-4v-4h4v4zm14 12H20v-4h10v4zm6-6H20v-4h16v4zm0-6H20v-4h16v4z"/></svg>
